X: 10385
T: Donald Blue
R: reel
M: 4/4
K: Dmajor
|:dBAF A2FA|dBAF EFD2|dBAF A2FA|1 B2BA B2AB:|2 B2BA B2dB||
|:ABde fddf|gefd edBd|ABde fded|1 B2BA B2dB:|2 B2BA B2AB||

